X: 10
L:1/8
M:4/4
K:G
((3A/B/c/|d)>BA>B G2D2|E>GF>A G4|E>GF>A G2B2|A>EF>G A3 (3A/B/c/|
d>BA>B G2D2|E>GF>A G4|c>cB>A d>BG>A|B2A2 G3 ((3D/E/F/||
L:1/8
M:2/4
K:G
([df]>e) ([df]>e)|dd d(3D/E/F/:|2 ([df]>e) d(e/f/)|[Bg][Bg] [Bg]||



